packages/icon/src/svg/check-circle.icon.svg

<svg width="24" height="24" viewBox="0 0 24 24" fill="none" xmlns="http://www.w3.org/2000/svg">
<path fill-rule="evenodd" clip-rule="evenodd" d="M2 12C2 6.48609 6.48608 2 12 2C17.5139 2 22 6.48609 22 12C22 17.5139 17.5139 22 12 22C6.48608 22 2 17.5139 2 12ZM4 12C4 7.58887 7.58887 4 12 4C16.4111 4 20 7.58887 20 12C20 16.4111 16.4111 20 12 20C7.58887 20 4 16.4111 4 12ZM6.64642 12.3536L7.35358 11.6464C7.54883 11.4512 7.86542 11.4512 8.06067 11.6464L10 13.5858L15.9393 7.64645C16.1346 7.45118 16.4512 7.45118 16.6464 7.64645L17.3536 8.35355C17.5488 8.54882 17.5488 8.8654 17.3536 9.06066L10.3536 16.0607C10.1583 16.2559 9.84174 16.2559 9.64642 16.0607L6.64642 13.0607C6.45117 12.8654 6.45117 12.5488 6.64642 12.3536Z" fill="white"/>
</svg>

<svg aria-label="check circle icon" viewBox="0 0 24 24"><path fill-rule="evenodd" clip-rule="evenodd" d="M2 12C2 6.486 6.486 2 12 2s10 4.486 10 10-4.486 10-10 10S2 17.514 2 12zm2 0c0-4.411 3.589-8 8-8s8 3.589 8 8-3.589 8-8 8-8-3.589-8-8zm2.646.354l.708-.708a.5.5 0 01.707 0L10 13.586l5.94-5.94a.5.5 0 01.706 0l.708.708a.5.5 0 010 .707l-7 7a.5.5 0 01-.708 0l-3-3a.5.5 0 010-.707z"/></svg>
